backend/assets/luts/cinematic_neutral.cube
LUT_3D_SIZE 4
0.000000 0.000000 0.000000
0.360000 0.000000 0.000000
0.720000 0.000000 0.000000
1.000000 0.000000 0.000000
0.000000 0.360000 0.000000
0.360000 0.360000 0.000000
0.720000 0.360000 0.000000
1.000000 0.360000 0.000000
0.000000 0.720000 0.000000
0.360000 0.720000 0.000000
0.720000 0.720000 0.000000
1.000000 0.720000 0.000000
0.000000 1.000000 0.000000
0.360000 1.000000 0.000000
0.720000 1.000000 0.000000
1.000000 1.000000 0.000000
0.000000 0.000000 0.360000
0.360000 0.000000 0.360000
0.720000 0.000000 0.360000
1.000000 0.000000 0.360000
0.000000 0.360000 0.360000
0.360000 0.360000 0.360000
0.720000 0.360000 0.360000
1.000000 0.360000 0.360000
0.000000 0.720000 0.360000
0.360000 0.720000 0.360000
0.720000 0.720000 0.360000
1.000000 0.720000 0.360000
0.000000 1.000000 0.360000
0.360000 1.000000 0.360000
0.720000 1.000000 0.360000
1.000000 1.000000 0.360000
0.000000 0.000000 0.720000
0.360000 0.000000 0.720000
0.720000 0.000000 0.720000
1.000000 0.000000 0.720000
0.000000 0.360000 0.720000
0.360000 0.360000 0.720000
0.720000 0.360000 0.720000
1.000000 0.360000 0.720000
0.000000 0.720000 0.720000
0.360000 0.720000 0.720000
0.720000 0.720000 0.720000
1.000000 0.720000 0.720000
0.000000 1.000000 0.720000
0.360000 1.000000 0.720000
0.720000 1.000000 0.720000
1.000000 1.000000 0.720000
0.000000 0.000000 1.000000
0.360000 0.000000 1.000000
0.720000 0.000000 1.000000
1.000000 0.000000 1.000000
0.000000 0.360000 1.000000
0.360000 0.360000 1.000000
0.720000 0.360000 1.000000
1.000000 0.360000 1.000000
0.000000 0.720000 1.000000
0.360000 0.720000 1.000000
0.720000 0.720000 1.000000
1.000000 0.720000 1.000000
0.000000 1.000000 1.000000
0.360000 1.000000 1.000000
0.720000 1.000000 1.000000
1.000000 1.000000 1.000000
