backend/assets/luts/cinematic_warm.cube
LUT_3D_SIZE 4
0.000000 0.000000 0.000000
0.420000 0.050000 0.000000
0.780000 0.100000 0.000000
1.000000 0.150000 0.050000
0.000000 0.400000 0.000000
0.400000 0.420000 0.020000
0.760000 0.450000 0.040000
1.000000 0.480000 0.060000
0.000000 0.760000 0.050000
0.380000 0.770000 0.060000
0.730000 0.790000 0.080000
1.000000 0.820000 0.100000
0.050000 1.000000 0.150000
0.400000 1.000000 0.160000
0.740000 1.000000 0.180000
1.000000 1.000000 0.200000
0.050000 0.000000 0.000000
0.450000 0.060000 0.000000
0.800000 0.110000 0.000000
1.000000 0.160000 0.060000
0.050000 0.410000 0.000000
0.420000 0.430000 0.020000
0.770000 0.460000 0.050000
1.000000 0.490000 0.070000
0.050000 0.770000 0.060000
0.400000 0.780000 0.070000
0.750000 0.800000 0.090000
1.000000 0.830000 0.110000
0.080000 1.000000 0.160000
0.420000 1.000000 0.170000
0.760000 1.000000 0.190000
1.000000 1.000000 0.210000
0.100000 0.000000 0.000000
0.480000 0.070000 0.000000
0.820000 0.120000 0.010000
1.000000 0.170000 0.070000
0.100000 0.420000 0.010000
0.450000 0.440000 0.030000
0.790000 0.470000 0.060000
1.000000 0.500000 0.080000
0.100000 0.780000 0.070000
0.420000 0.790000 0.080000
0.770000 0.810000 0.100000
1.000000 0.840000 0.120000
0.120000 1.000000 0.170000
0.450000 1.000000 0.180000
0.780000 1.000000 0.200000
1.000000 1.000000 0.220000
0.150000 0.010000 0.010000
0.520000 0.080000 0.010000
0.850000 0.130000 0.020000
1.000000 0.180000 0.080000
0.150000 0.430000 0.020000
0.480000 0.450000 0.040000
0.810000 0.480000 0.070000
1.000000 0.510000 0.090000
0.150000 0.790000 0.080000
0.450000 0.800000 0.090000
0.790000 0.820000 0.110000
1.000000 0.850000 0.130000
0.180000 1.000000 0.180000
0.480000 1.000000 0.190000
0.800000 1.000000 0.210000
1.000000 1.000000 0.230000
