backend/assets/luts/cinematic_cold.cube
LUT_3D_SIZE 4
0.000000 0.000000 0.050000
0.380000 0.000000 0.050000
0.720000 0.050000 0.080000
1.000000 0.100000 0.120000
0.000000 0.380000 0.050000
0.350000 0.370000 0.080000
0.680000 0.400000 0.120000
0.980000 0.420000 0.150000
0.000000 0.700000 0.100000
0.320000 0.700000 0.130000
0.650000 0.720000 0.160000
0.960000 0.740000 0.200000
0.020000 0.980000 0.200000
0.320000 0.980000 0.220000
0.640000 0.990000 0.250000
0.960000 1.000000 0.280000
0.050000 0.000000 0.380000
0.400000 0.000000 0.380000
0.740000 0.060000 0.400000
1.000000 0.110000 0.420000
0.050000 0.370000 0.380000
0.380000 0.370000 0.400000
0.700000 0.400000 0.430000
0.990000 0.430000 0.460000
0.050000 0.700000 0.420000
0.360000 0.700000 0.440000
0.670000 0.720000 0.470000
0.970000 0.750000 0.500000
0.070000 0.980000 0.500000
0.360000 0.980000 0.520000
0.660000 0.990000 0.540000
0.970000 1.000000 0.570000
0.080000 0.000000 0.700000
0.420000 0.010000 0.710000
0.760000 0.070000 0.730000
1.000000 0.120000 0.750000
0.080000 0.380000 0.700000
0.410000 0.380000 0.720000
0.720000 0.410000 0.750000
1.000000 0.440000 0.770000
0.080000 0.710000 0.730000
0.390000 0.710000 0.750000
0.690000 0.730000 0.780000
0.980000 0.760000 0.810000
0.100000 0.990000 0.800000
0.390000 0.990000 0.820000
0.680000 1.000000 0.840000
0.980000 1.000000 0.870000
0.120000 0.010000 0.980000
0.450000 0.020000 0.990000
0.780000 0.080000 1.000000
1.000000 0.130000 1.000000
0.120000 0.390000 0.980000
0.450000 0.390000 0.990000
0.750000 0.420000 1.000000
1.000000 0.450000 1.000000
0.120000 0.720000 1.000000
0.430000 0.720000 1.000000
0.720000 0.740000 1.000000
1.000000 0.770000 1.000000
0.150000 1.000000 1.000000
0.430000 1.000000 1.000000
0.710000 1.000000 1.000000
1.000000 1.000000 1.000000
